flaticon/constructions/screws-1.svg

<svg xmlns="http://www.w3.org/2000/svg" width="32" height="32" viewBox="0 0 24 24">
    <path d="M7.191406 0L1.589844 0C1.429688 0 1.269531.121094 1.230469.238281 1.191406.359375 1.191406.519531 1.269531.640625L2.472656 2.238281C2.550781 2.359375 2.671875 2.398438 2.792969 2.398438L3.191406 2.398438 3.191406 3.269531 2.910156 3.199219C2.671875 3.160156 2.472656 3.28125 2.390625 3.519531 2.351562 3.71875 2.472656 3.921875 2.710938 4L3.191406 4.121094 3.191406 4.910156 2.910156 4.839844C2.710938 4.761719 2.472656 4.921875 2.429688 5.121094 2.351562 5.320312 2.511719 5.558594 2.710938 5.601562L3.191406 5.71875 3.191406 6.511719 2.910156 6.441406C2.710938 6.359375 2.472656 6.519531 2.429688 6.71875 2.351562 6.921875 2.511719 7.160156 2.710938 7.199219L3.191406 7.320312 3.191406 8.109375 2.910156 8.039062C2.710938 7.960938 2.472656 8.121094 2.429688 8.320312 2.351562 8.519531 2.511719 8.761719 2.710938 8.800781L3.191406 8.921875 3.191406 9.710938 2.910156 9.640625C2.710938 9.558594 2.472656 9.71875 2.429688 9.921875 2.351562 10.121094 2.511719 10.359375 2.710938 10.398438L3.195312 10.519531C3.21875 12.15625 3.496094 13.757812 4.03125 15.320312 4.070312 15.480469 4.230469 15.601562 4.390625 15.601562 4.550781 15.601562 4.710938 15.480469 4.792969 15.320312 5.226562 13.945312 5.492188 12.542969 5.570312 11.113281L5.910156 11.199219C5.910156 11.199219 5.953125 11.199219 5.992188 11.199219 6.191406 11.199219 6.351562 11.078125 6.390625 10.921875 6.472656 10.71875 6.3125 10.480469 6.113281 10.441406L5.589844 10.308594C5.589844 10.300781 5.589844 10.289062 5.589844 10.28125L5.589844 9.519531 5.910156 9.601562C5.910156 9.601562 5.953125 9.601562 5.992188 9.601562 6.191406 9.601562 6.351562 9.480469 6.390625 9.320312 6.472656 9.121094 6.3125 8.878906 6.113281 8.839844L5.589844 8.710938 5.589844 7.921875 5.910156 8C5.910156 8 5.953125 8 5.992188 8 6.191406 8 6.351562 7.878906 6.390625 7.71875 6.472656 7.519531 6.3125 7.28125 6.113281 7.238281L5.589844 7.109375 5.589844 6.320312 5.910156 6.398438C5.910156 6.398438 5.953125 6.398438 5.992188 6.398438 6.191406 6.398438 6.351562 6.28125 6.390625 6.121094 6.472656 5.921875 6.3125 5.679688 6.113281 5.640625L5.589844 5.511719 5.589844 4.71875 5.910156 4.800781C5.910156 4.800781 5.953125 4.800781 5.992188 4.800781 6.191406 4.800781 6.351562 4.679688 6.390625 4.480469 6.472656 4.28125 6.3125 4.039062 6.113281 4L5.589844 3.871094 5.589844 2.398438 5.992188 2.398438C6.113281 2.398438 6.230469 2.359375 6.3125 2.238281L7.511719.640625C7.589844.519531 7.632812.398438 7.550781.238281 7.472656.078125 7.351562 0 7.191406 0zM4.390625 13.761719C4.148438 12.746094 4.023438 11.734375 3.996094 10.722656L4.78125 10.917969C4.742188 11.890625 4.621094 12.839844 4.390625 13.761719zM4.792969 10.109375L3.992188 9.910156 3.992188 9.121094 4.792969 9.320312zM4.792969 8.511719L3.992188 8.308594 3.992188 7.519531 4.792969 7.71875zM4.792969 6.910156L3.992188 6.710938 3.992188 5.921875 4.792969 6.121094zM4.792969 5.308594L3.992188 5.109375 3.992188 4.320312 4.792969 4.519531zM4.792969 3.671875L3.992188 3.46875 3.992188 2.398438 4.792969 2.398438zM5.792969 1.601562L2.992188 1.601562 2.390625.800781 6.390625.800781zM14.792969 0L9.191406 0C9.03125 0 8.910156.121094 8.832031.238281 8.75.359375 8.792969.519531 8.871094.640625L10.070312 2.238281C10.152344 2.359375 10.269531 2.398438 10.390625 2.398438L10.792969 2.398438 10.792969 3.308594 10.511719 3.238281C10.3125 3.160156 10.070312 3.320312 10.03125 3.519531 9.953125 3.71875 10.113281 3.960938 10.3125 4L10.792969 4.121094 10.792969 4.910156 10.511719 4.839844C10.3125 4.761719 10.070312 4.921875 10.03125 5.121094 9.953125 5.320312 10.113281 5.558594 10.3125 5.601562L10.792969 5.71875 10.792969 6.511719 10.511719 6.441406C10.3125 6.359375 10.070312 6.519531 10.03125 6.71875 9.953125 6.921875 10.113281 7.160156 10.3125 7.199219L10.792969 7.320312 10.792969 8.109375 10.511719 8.039062C10.3125 7.960938 10.070312 8.121094 10.03125 8.320312 9.953125 8.519531 10.113281 8.761719 10.3125 8.800781L10.792969 8.917969 10.792969 9.710938 10.511719 9.640625C10.3125 9.558594 10.070312 9.71875 10.03125 9.917969 9.953125 10.121094 10.113281 10.359375 10.3125 10.398438L10.792969 10.519531 10.792969 11.308594 10.511719 11.238281C10.3125 11.160156 10.070312 11.320312 10.03125 11.519531 9.953125 11.71875 10.113281 11.960938 10.3125 12L10.792969 12.121094 10.792969 12.910156 10.511719 12.839844C10.3125 12.761719 10.070312 12.917969 10.03125 13.121094 9.953125 13.320312 10.113281 13.558594 10.3125 13.601562L10.792969 13.71875 10.792969 13.878906C10.792969 14.089844 10.796875 14.300781 10.804688 14.511719L10.511719 14.441406C10.3125 14.359375 10.070312 14.519531 10.03125 14.71875 9.953125 14.917969 10.113281 15.160156 10.3125 15.199219L10.859375 15.335938C10.972656 16.550781 11.230469 17.746094 11.632812 18.917969 11.671875 19.078125 11.832031 19.199219 11.992188 19.199219 12.152344 19.199219 12.3125 19.078125 12.351562 18.917969 12.691406 17.945312 12.929688 16.925781 13.0625 15.886719L13.511719 16C13.511719 16 13.550781 16 13.589844 16 13.792969 16 13.953125 15.878906 13.992188 15.71875 14.070312 15.519531 13.910156 15.28125 13.710938 15.238281L13.144531 15.097656C13.164062 14.839844 13.175781 14.578125 13.183594 14.316406L13.511719 14.398438C13.511719 14.398438 13.550781 14.398438 13.589844 14.398438 13.792969 14.398438 13.953125 14.28125 13.992188 14.121094 14.070312 13.917969 13.910156 13.679688 13.710938 13.640625L13.191406 13.511719 13.191406 12.71875 13.511719 12.800781C13.511719 12.800781 13.550781 12.800781 13.589844 12.800781 13.792969 12.800781 13.953125 12.679688 13.992188 12.519531 14.070312 12.320312 13.910156 12.078125 13.710938 12.039062L13.191406 11.910156 13.191406 11.121094 13.511719 11.199219C13.511719 11.199219 13.550781 11.199219 13.589844 11.199219 13.792969 11.199219 13.953125 11.078125 13.992188 10.921875 14.070312 10.71875 13.910156 10.480469 13.710938 10.441406L13.191406 10.308594 13.191406 9.519531 13.511719 9.601562C13.511719 9.601562 13.550781 9.601562 13.589844 9.601562 13.792969 9.601562 13.953125 9.480469 13.992188 9.320312 14.070312 9.121094 13.910156 8.878906 13.710938 8.839844L13.191406 8.710938 13.191406 7.921875 13.511719 8C13.511719 8 13.550781 8 13.589844 8 13.792969 8 13.953125 7.878906 13.992188 7.71875 14.070312 7.519531 13.910156 7.28125 13.710938 7.238281L13.191406 7.109375 13.191406 6.320312 13.511719 6.398438C13.511719 6.398438 13.550781 6.398438 13.589844 6.398438 13.792969 6.398438 13.953125 6.28125 13.992188 6.121094 14.070312 5.921875 13.910156 5.679688 13.710938 5.640625L13.191406 5.511719 13.191406 4.71875 13.511719 4.800781C13.511719 4.800781 13.550781 4.800781 13.589844 4.800781 13.792969 4.800781 13.953125 4.679688 13.992188 4.519531 14.070312 4.320312 13.910156 4.078125 13.710938 4.039062L13.191406 3.910156 13.191406 2.398438 13.589844 2.398438C13.710938 2.398438 13.832031 2.359375 13.910156 2.238281L15.113281.640625C15.191406.519531 15.230469.359375 15.152344.238281 15.070312.078125 14.953125 0 14.792969 0zM11.992188 17.359375C11.84375 16.753906 11.742188 16.148438 11.679688 15.542969L12.289062 15.695312C12.226562 16.257812 12.128906 16.816406 11.992188 17.359375zM12.359375 14.902344L11.613281 14.714844C11.597656 14.449219 11.59375 14.183594 11.589844 13.921875L12.390625 14.121094C12.386719 14.382812 12.375 14.644531 12.359375 14.902344zM12.390625 13.308594L11.589844 13.109375 11.589844 12.320312 12.390625 12.519531zM12.390625 11.710938L11.589844 11.511719 11.589844 10.71875 12.390625 10.921875zM12.390625 10.109375L11.589844 9.910156 11.589844 9.121094 12.390625 9.320312zM12.390625 8.511719L11.589844 8.308594 11.589844 7.519531 12.390625 7.71875zM12.390625 6.910156L11.589844 6.710938 11.589844 5.921875 12.390625 6.121094zM12.390625 5.308594L11.589844 5.109375 11.589844 4.320312 12.390625 4.519531zM12.390625 3.710938L11.589844 3.511719 11.589844 2.398438 12.390625 2.398438zM13.390625 1.601562L10.589844 1.601562 9.992188.800781 13.992188.800781zM21.191406 2.398438C21.3125 2.398438 21.429688 2.359375 21.511719 2.238281L22.710938.640625C22.792969.519531 22.832031.359375 22.75.238281 22.671875.078125 22.550781 0 22.390625 0L16.792969 0C16.632812 0 16.511719.078125 16.429688.238281 16.351562.359375 16.390625.519531 16.472656.640625L17.671875 2.238281C17.75 2.359375 17.871094 2.398438 17.992188 2.398438L18.390625 2.398438 18.390625 3.308594 18.109375 3.238281C17.910156 3.160156 17.671875 3.320312 17.632812 3.519531 17.550781 3.71875 17.710938 3.960938 17.910156 4L18.390625 4.121094 18.390625 4.910156 18.109375 4.839844C17.910156 4.761719 17.671875 4.921875 17.632812 5.121094 17.550781 5.320312 17.710938 5.558594 17.910156 5.601562L18.390625 5.71875 18.390625 6.511719 18.109375 6.441406C17.910156 6.359375 17.671875 6.519531 17.632812 6.71875 17.550781 6.921875 17.710938 7.160156 17.910156 7.199219L18.390625 7.320312 18.390625 8.109375 18.109375 8.039062C17.910156 7.960938 17.671875 8.121094 17.632812 8.320312 17.550781 8.519531 17.710938 8.761719 17.910156 8.800781L18.390625 8.921875 18.390625 9.710938 18.109375 9.640625C17.910156 9.558594 17.671875 9.71875 17.632812 9.921875 17.550781 10.121094 17.710938 10.359375 17.910156 10.398438L18.390625 10.519531 18.390625 11.308594 18.109375 11.238281C17.910156 11.160156 17.671875 11.320312 17.632812 11.519531 17.550781 11.71875 17.710938 11.960938 17.910156 12L18.390625 12.121094 18.390625 12.910156 18.109375 12.839844C17.910156 12.761719 17.671875 12.921875 17.632812 13.121094 17.550781 13.320312 17.710938 13.558594 17.910156 13.601562L18.390625 13.71875 18.390625 14.511719 18.109375 14.441406C17.910156 14.359375 17.671875 14.519531 17.632812 14.71875 17.550781 14.917969 17.710938 15.160156 17.910156 15.199219L18.390625 15.320312 18.390625 16.109375 18.109375 16.039062C17.910156 15.960938 17.671875 16.121094 17.632812 16.320312 17.550781 16.519531 17.710938 16.761719 17.910156 16.800781L18.390625 16.917969 18.390625 17.710938 18.109375 17.640625C17.910156 17.558594 17.671875 17.71875 17.632812 17.917969 17.550781 18.121094 17.710938 18.359375 17.910156 18.398438L18.390625 18.519531 18.390625 18.679688C18.390625 18.890625 18.394531 19.101562 18.402344 19.3125L18.109375 19.238281C17.910156 19.160156 17.671875 19.320312 17.632812 19.519531 17.550781 19.71875 17.710938 19.960938 17.910156 20L18.460938 20.136719C18.574219 21.351562 18.832031 22.546875 19.230469 23.71875 19.269531 23.878906 19.429688 24 19.589844 24 19.75 24 19.910156 23.878906 19.953125 23.71875 20.292969 22.746094 20.53125 21.726562 20.664062 20.6875L21.109375 20.800781C21.109375 20.800781 21.152344 20.800781 21.191406 20.800781 21.390625 20.800781 21.550781 20.679688 21.589844 20.519531 21.671875 20.320312 21.511719 20.078125 21.3125 20.039062L20.742188 19.898438C20.765625 19.636719 20.777344 19.378906 20.785156 19.117188L21.109375 19.199219C21.109375 19.199219 21.152344 19.199219 21.191406 19.199219 21.390625 19.199219 21.550781 19.078125 21.589844 18.917969 21.671875 18.71875 21.511719 18.480469 21.3125 18.441406L20.792969 18.308594 20.792969 17.519531 21.113281 17.601562C21.113281 17.601562 21.152344 17.601562 21.191406 17.601562 21.390625 17.601562 21.550781 17.480469 21.589844 17.320312 21.671875 17.121094 21.511719 16.878906 21.3125 16.839844L20.792969 16.710938 20.792969 15.921875 21.113281 16C21.113281 16 21.152344 16 21.191406 16 21.390625 16 21.550781 15.878906 21.589844 15.71875 21.671875 15.519531 21.511719 15.28125 21.3125 15.238281L20.792969 15.109375 20.792969 14.320312 21.113281 14.398438C21.113281 14.398438 21.152344 14.398438 21.191406 14.398438 21.390625 14.398438 21.550781 14.28125 21.589844 14.121094 21.671875 13.921875 21.511719 13.679688 21.3125 13.640625L20.792969 13.511719 20.792969 12.71875 21.113281 12.800781C21.113281 12.800781 21.152344 12.800781 21.191406 12.800781 21.390625 12.800781 21.550781 12.679688 21.589844 12.519531 21.671875 12.320312 21.511719 12.078125 21.3125 12.039062L20.792969 11.910156 20.792969 11.121094 21.113281 11.199219C21.113281 11.199219 21.152344 11.199219 21.191406 11.199219 21.390625 11.199219 21.550781 11.078125 21.589844 10.921875 21.671875 10.71875 21.511719 10.480469 21.3125 10.441406L20.792969 10.308594 20.792969 9.519531 21.113281 9.601562C21.113281 9.601562 21.152344 9.601562 21.191406 9.601562 21.390625 9.601562 21.550781 9.480469 21.589844 9.320312 21.671875 9.121094 21.511719 8.878906 21.3125 8.839844L20.792969 8.710938 20.792969 7.921875 21.113281 8C21.113281 8 21.152344 8 21.191406 8 21.390625 8 21.550781 7.878906 21.589844 7.71875 21.671875 7.519531 21.511719 7.28125 21.3125 7.238281L20.792969 7.109375 20.792969 6.320312 21.113281 6.398438C21.113281 6.398438 21.152344 6.398438 21.191406 6.398438 21.390625 6.398438 21.550781 6.28125 21.589844 6.121094 21.671875 5.921875 21.511719 5.679688 21.3125 5.640625L20.792969 5.511719 20.792969 4.71875 21.113281 4.800781C21.113281 4.800781 21.152344 4.800781 21.191406 4.800781 21.390625 4.800781 21.550781 4.679688 21.589844 4.519531 21.671875 4.320312 21.511719 4.078125 21.3125 4.039062L20.792969 3.910156 20.792969 2.398438zM17.589844.800781L21.589844.800781 20.992188 1.601562 18.191406 1.601562zM19.589844 22.160156C19.445312 21.554688 19.34375 20.949219 19.277344 20.339844L19.890625 20.496094C19.824219 21.058594 19.726562 21.613281 19.589844 22.160156zM19.960938 19.703125L19.210938 19.515625C19.199219 19.25 19.191406 18.984375 19.191406 18.71875L19.988281 18.917969C19.984375 19.183594 19.976562 19.441406 19.960938 19.703125zM19.992188 18.109375L19.191406 17.910156 19.191406 17.121094 19.992188 17.320312zM19.992188 16.511719L19.191406 16.308594 19.191406 15.519531 19.992188 15.71875zM19.992188 14.910156L19.191406 14.710938 19.191406 13.921875 19.992188 14.121094zM19.992188 13.308594L19.191406 13.109375 19.191406 12.320312 19.992188 12.519531zM19.992188 11.710938L19.191406 11.511719 19.191406 10.71875 19.992188 10.921875zM19.992188 10.109375L19.191406 9.910156 19.191406 9.121094 19.992188 9.320312zM19.992188 8.511719L19.191406 8.308594 19.191406 7.519531 19.992188 7.71875zM19.992188 6.910156L19.191406 6.710938 19.191406 5.921875 19.992188 6.121094zM19.992188 5.308594L19.191406 5.109375 19.191406 4.320312 19.992188 4.519531zM19.992188 3.710938L19.191406 3.511719 19.191406 2.398438 19.992188 2.398438zM19.992188 3.710938"/>
</svg>

<svg xmlns="http://www.w3.org/2000/svg" width="32" height="32" viewBox="0 0 24 24">
    <path d="M7.191 0H1.59c-.16 0-.32.121-.36.238a.489.489 0 0 0 .04.403l1.203 1.597c.078.121.199.16.32.16h.398v.872l-.28-.07c-.24-.04-.438.081-.52.32-.04.199.082.402.32.48l.48.121v.79l-.28-.071c-.2-.078-.438.082-.481.281-.078.2.082.438.28.48l.481.118v.793l-.28-.07c-.2-.083-.438.078-.481.277-.078.203.082.441.28.48l.481.121v.79l-.28-.07c-.2-.08-.438.081-.481.28-.078.2.082.442.28.48l.481.122v.789l-.28-.07c-.2-.082-.438.078-.481.28-.078.2.082.438.28.477l.485.122c.024 1.636.301 3.238.836 4.8.04.16.2.282.36.282.16 0 .32-.122.402-.282.434-1.375.7-2.777.777-4.207l.34.086h.082c.2 0 .36-.12.399-.277.082-.203-.079-.442-.278-.48l-.523-.133V9.52l.32.082h.082c.2 0 .36-.122.399-.282.082-.199-.079-.441-.278-.48l-.523-.13v-.788L5.91 8h.082c.2 0 .36-.121.399-.281.082-.2-.079-.438-.278-.48l-.523-.13V6.32l.32.078h.082c.2 0 .36-.117.399-.277.082-.2-.079-.441-.278-.48l-.523-.13V4.72l.32.082h.082c.2 0 .36-.121.399-.32.082-.2-.079-.442-.278-.481l-.523-.129V2.398h.402c.121 0 .238-.039.32-.16l1.2-1.597c.078-.121.12-.243.039-.403C7.473.078 7.35 0 7.19 0zm-2.8 13.762a14.767 14.767 0 0 1-.395-3.04l.785.196a14.01 14.01 0 0 1-.39 2.844zm.402-3.653l-.8-.199v-.789l.8.2zm0-1.597l-.8-.203v-.79l.8.2zm0-1.602l-.8-.2v-.788l.8.2zm0-1.601l-.8-.2V4.32l.8.2zm0-1.637l-.8-.203v-1.07h.8zm1-2.07h-2.8L2.39.8h4zm0 0M14.793 0H9.191c-.16 0-.28.121-.359.238-.082.121-.039.282.04.403l1.198 1.597c.082.121.2.16.32.16h.403v.91l-.281-.07c-.2-.078-.442.082-.48.282-.079.199.081.44.28.48l.481.121v.79l-.281-.071c-.2-.078-.442.082-.48.281-.079.2.081.438.28.48l.481.118v.793l-.281-.07c-.2-.083-.442.078-.48.277-.079.203.081.441.28.48l.481.121v.79l-.281-.07c-.2-.08-.442.081-.48.28-.079.2.081.442.28.48l.481.118v.793l-.281-.07c-.2-.082-.442.078-.48.277-.079.203.081.441.28.48l.481.122v.789l-.281-.07c-.2-.079-.442.081-.48.28-.079.2.081.442.28.481l.481.121v.79l-.281-.071c-.2-.078-.442.078-.48.281-.079.2.081.438.28.48l.481.118v.16c0 .21.004.422.012.633l-.293-.07c-.2-.083-.442.078-.48.277-.079.199.081.441.28.48l.547.137c.114 1.215.371 2.41.774 3.582.039.16.199.281.36.281.16 0 .32-.12.359-.281.34-.973.578-1.992.71-3.031l.45.113h.078c.203 0 .363-.121.402-.281.078-.2-.082-.438-.281-.48l-.566-.141c.02-.258.03-.52.039-.782l.328.082h.078c.203 0 .363-.117.402-.277.078-.203-.082-.441-.281-.48l-.52-.13v-.792l.32.082h.079c.203 0 .363-.121.402-.281.078-.2-.082-.442-.281-.48l-.52-.13v-.789l.32.078h.079c.203 0 .363-.12.402-.277.078-.203-.082-.442-.281-.48l-.52-.133v-.79l.32.083h.079c.203 0 .363-.122.402-.282.078-.199-.082-.441-.281-.48l-.52-.13v-.788l.32.078h.079c.203 0 .363-.121.402-.281.078-.2-.082-.438-.281-.48l-.52-.13V6.32l.32.078h.079c.203 0 .363-.117.402-.277.078-.2-.082-.441-.281-.48l-.52-.13V4.72l.32.082h.079c.203 0 .363-.121.402-.281.078-.2-.082-.442-.281-.48l-.52-.13V2.398h.399c.12 0 .242-.039.32-.16L15.113.641c.078-.121.117-.282.04-.403-.083-.16-.2-.238-.36-.238zm-2.8 17.36c-.15-.606-.25-1.212-.313-1.817l.61.152c-.063.563-.161 1.121-.298 1.664zm.366-2.458l-.746-.187c-.015-.266-.02-.531-.023-.793l.8.2c-.003.26-.015.523-.03.78zm.032-1.593l-.801-.2v-.789l.8.2zm0-1.598l-.801-.2v-.792l.8.203zm0-1.602l-.801-.199v-.789l.8.2zm0-1.597l-.801-.203v-.79l.8.2zm0-1.602l-.801-.2v-.788l.8.2zm0-1.601l-.801-.2V4.32l.8.2zm0-1.598l-.801-.2V2.399h.8zm1-2.11H10.59l-.598-.8h4zm0 0M21.191 2.398c.122 0 .239-.039.32-.16l1.2-1.597c.082-.121.121-.282.039-.403-.078-.16-.2-.238-.36-.238h-5.597c-.16 0-.281.078-.363.238-.078.121-.04.282.043.403l1.199 1.597c.078.121.2.16.32.16h.399v.91l-.282-.07c-.199-.078-.437.082-.476.282-.082.199.078.44.277.48l.48.121v.79l-.28-.071c-.2-.078-.438.082-.477.281-.082.2.078.438.277.48l.48.118v.793l-.28-.07c-.2-.083-.438.078-.477.277-.082.203.078.441.277.48l.48.121v.79l-.28-.07c-.2-.08-.438.081-.477.28-.082.2.078.442.277.48l.48.122v.789l-.28-.07c-.2-.082-.438.078-.477.28-.082.2.078.438.277.477l.48.122v.789l-.28-.07c-.2-.079-.438.081-.477.28-.082.2.078.442.277.481l.48.121v.79l-.28-.071c-.2-.078-.438.082-.477.281-.082.2.078.438.277.48l.48.118v.793l-.28-.07c-.2-.083-.438.078-.477.277-.082.199.078.441.277.48l.48.121v.79l-.28-.07c-.2-.08-.438.081-.477.28-.082.2.078.442.277.48l.48.118v.793l-.28-.07c-.2-.082-.438.078-.477.277-.082.203.078.441.277.48l.48.122v.16c0 .21.005.422.012.633l-.293-.075c-.199-.078-.437.082-.476.282-.082.199.078.44.277.48l.55.137a15.6 15.6 0 0 0 .77 3.582c.04.16.2.281.36.281.16 0 .32-.121.363-.281.34-.973.578-1.992.711-3.032l.445.114h.082c.2 0 .36-.121.399-.281.082-.2-.078-.442-.277-.48l-.57-.142c.023-.261.034-.52.042-.78l.324.081h.082c.2 0 .36-.12.399-.281.082-.2-.078-.438-.277-.477l-.52-.132v-.79l.32.083h.078c.2 0 .36-.122.399-.282.082-.199-.078-.441-.277-.48l-.52-.13v-.788l.32.078h.078c.2 0 .36-.121.399-.281.082-.2-.078-.438-.277-.48l-.52-.13v-.789l.32.078h.078c.2 0 .36-.117.399-.277.082-.2-.078-.441-.277-.48l-.52-.13v-.792l.32.082h.078c.2 0 .36-.121.399-.281.082-.2-.078-.442-.277-.48l-.52-.13v-.789l.32.078h.078c.2 0 .36-.12.399-.277.082-.203-.078-.442-.277-.48l-.52-.133v-.79l.32.083h.078c.2 0 .36-.122.399-.282.082-.199-.078-.441-.277-.48l-.52-.13v-.788l.32.078h.078c.2 0 .36-.121.399-.281.082-.2-.078-.438-.277-.48l-.52-.13V6.32l.32.078h.078c.2 0 .36-.117.399-.277.082-.2-.078-.441-.277-.48l-.52-.13V4.72l.32.082h.078c.2 0 .36-.121.399-.281.082-.2-.078-.442-.277-.48l-.52-.13V2.398zM17.59.801h4l-.598.8h-2.8zm2 21.36a14.656 14.656 0 0 1-.313-1.821l.614.156a13.258 13.258 0 0 1-.301 1.664zm.37-2.458l-.75-.187a18.08 18.08 0 0 1-.019-.797l.797.199c-.004.266-.011.523-.027.785zm.032-1.594l-.8-.199v-.789l.8.2zm0-1.597l-.8-.203v-.79l.8.2zm0-1.602l-.8-.2v-.788l.8.2zm0-1.601l-.8-.2v-.789l.8.2zm0-1.598l-.8-.2v-.792l.8.203zm0-1.602l-.8-.199v-.789l.8.2zm0-1.597l-.8-.203v-.79l.8.2zm0-1.602l-.8-.2v-.788l.8.2zm0-1.601l-.8-.2V4.32l.8.2zm0-1.598l-.8-.2V2.399h.8zm0 0"/>
</svg>
